static/icons/promote_square.svg

<svg width="24" height="24" viewBox="0 0 24 24" fill="none" xmlns="http://www.w3.org/2000/svg">
   <rect width="24" height="24" rx="4" fill="#F81734"/>
   <path d="M15.8173 5.92161V4.93066C15.8173 4.47766 16.1877 4.10723 16.6407 4.10723C17.0937 4.10723 17.4642 4.47766 17.4642 4.93066V18.8525C17.4642 19.3055 17.0937 19.676 16.6407 19.676C16.1877 19.676 15.8173 19.3055 15.8173 18.8525V17.8654L8.74589 15.0354H6.90367L7.93727 18.6567C7.93728 18.6568 7.93729 18.6568 7.9373 18.6569C8.06494 19.0935 7.8096 19.5504 7.3733 19.674C6.93661 19.8016 6.47973 19.5462 6.35619 19.1099L6.3562 19.1099L6.40428 19.0962L6.35617 19.1098L15.8173 5.92161ZM15.8173 5.92161L8.74591 8.74785H4.42041C3.11276 8.74785 2.0501 9.81051 2.0501 11.1182V12.665C2.0501 13.9727 3.11276 15.0354 4.42041 15.0354H5.19095L15.8173 5.92161ZM6.85167 15.0354L6.8374 14.9854H6.8894L6.85167 15.0354ZM3.69697 12.6689V11.122C3.69697 10.7243 4.02263 10.3986 4.42041 10.3986H8.08291V13.3923H4.42041C4.02263 13.3923 3.69697 13.0667 3.69697 12.6689ZM15.8173 16.091L9.72978 13.656V10.1311L15.8173 7.69608V16.091Z" fill="white" stroke="white" stroke-width="0.1"/>
   <path d="M21.1267 11.0721H19.5798C19.127 11.0721 18.7564 11.4385 18.7564 11.8955C18.7564 12.3485 19.1268 12.7189 19.5798 12.7189H21.1267C21.5797 12.7189 21.9501 12.3485 21.9501 11.8955C21.9501 11.4425 21.5797 11.0721 21.1267 11.0721Z" fill="white" stroke="white" stroke-width="0.1"/>
   <path d="M20.0277 6.99278L20.0276 6.99285L18.9952 7.68114C18.9952 7.68115 18.9951 7.68116 18.9951 7.68117C18.6163 7.93237 18.5133 8.44307 18.7686 8.82191C19.0199 9.19667 19.5303 9.29946 19.9089 9.04839L19.9091 9.04832L20.9416 8.35996L20.9417 8.35989C21.3165 8.10864 21.4193 7.59819 21.1682 7.21951L21.1681 7.2193C20.9168 6.8445 20.4064 6.7417 20.0277 6.99278Z" fill="white" stroke="white" stroke-width="0.1"/>
   <path d="M18.9952 16.1058L18.9953 16.1058L20.0276 16.7941C20.0277 16.7941 20.0277 16.7941 20.0277 16.7941C20.4065 17.0493 20.9171 16.9464 21.1683 16.5677C21.4235 16.1889 21.3205 15.6782 20.9418 15.4271C20.9417 15.427 20.9417 15.427 20.9417 15.427L19.9097 14.739C19.9096 14.739 19.9095 14.7389 19.9095 14.7389C19.5343 14.4834 19.0198 14.5867 18.7687 14.9654C18.5176 15.3441 18.6204 15.8545 18.9952 16.1058Z" fill="white" stroke="white" stroke-width="0.1"/>
</svg>

<svg xmlns="http://www.w3.org/2000/svg" viewBox="0 0 24 24"><defs><style>.cls-1{fill:#f81734;}.cls-2{fill:#fff;stroke:#fff;stroke-width:0.1px;}</style></defs><g id="Layer_2" data-name="Layer 2"><g id="Layer_1-2" data-name="Layer 1"><rect class="cls-1" width="24" height="24" rx="4"/><path class="cls-2" d="M15.82,4.93v1L8.75,8.75H4.42a2.37,2.37,0,0,0-2.37,2.37v1.54A2.38,2.38,0,0,0,4.42,15h.77l1.17,4.07a.81.81,0,0,0,1,.56.82.82,0,0,0,.57-1h0L6.9,15H8.75l7.07,2.83v1a.82.82,0,1,0,1.64,0V4.93a.82.82,0,0,0-1.64,0ZM3.7,12.67V11.12a.72.72,0,0,1,.72-.72H8.08v3H4.42A.72.72,0,0,1,3.7,12.67Zm12.12,3.42L9.73,13.66V10.13L15.82,7.7Z"/><path class="cls-2" d="M21.13,11.07H19.58a.83.83,0,0,0,0,1.65h1.55a.83.83,0,0,0,0-1.65Z"/><path class="cls-2" d="M20,7h0l-1,.69h0a.81.81,0,0,0-.23,1.14.82.82,0,0,0,1.14.23h0l1-.69h0a.82.82,0,0,0,.23-1.14h0A.82.82,0,0,0,20,7Z"/><path class="cls-2" d="M19,16.11h0l1,.68h0a.81.81,0,0,0,1.14-.22.82.82,0,0,0-.23-1.14h0l-1-.69h0a.81.81,0,0,0-1.14.23A.82.82,0,0,0,19,16.11Z"/></g></g></svg>
